X: 20269
T: Joe Tom's
R: reel
M: 4/4
K: Edorian
|:~E2 BE cE BE|~E2DB, A,B,DF|~E2 BE cE BE|cdAG FEDF|
DE BE cE BE|~E2DB, A,B,DF|EFGB Acde|1 faed cAFD:|2 faed cAFA||
|:~B3e fB~B2|cBAF Bcde|f2ba faaf|.g/.f/e fd efga|
bf~f2 affa|fegf edcA|~B3c dcde|1 fded cAFA:|2 fded cAFD||

